vendor/shopware/storefront/Resources/app/storefront/dist/assets/icon/default/search.svg

<svg xmlns="http://www.w3.org/2000/svg" width="24" height="24" viewBox="0 0 24 24">
  <path fill="#758CA3" fill-rule="evenodd" d="M10.0943561,16.3198574 L4.70710678,21.7071068 C4.31658249,22.0976311 3.68341751,22.0976311 3.29289322,21.7071068 C2.90236893,21.3165825 2.90236893,20.6834175 3.29289322,20.2928932 L8.68014258,14.9056439 C7.62708161,13.5509601 7,11.8487115 7,10 C7,5.581722 10.581722,2 15,2 C19.418278,2 23,5.581722 23,10 C23,14.418278 19.418278,18 15,18 C13.1512885,18 11.4490399,17.3729184 10.0943561,16.3198574 Z M15,16 C18.3137085,16 21,13.3137085 21,10 C21,6.6862915 18.3137085,4 15,4 C11.6862915,4 9,6.6862915 9,10 C9,13.3137085 11.6862915,16 15,16 Z"/>
</svg>

<svg xmlns="http://www.w3.org/2000/svg" width="24" height="24" viewBox="0 0 24 24"><path fill="#758CA3" fill-rule="evenodd" d="M10.0944 16.3199 4.707 21.707c-.3905.3905-1.0237.3905-1.4142 0-.3905-.3905-.3905-1.0237 0-1.4142L8.68 14.9056C7.6271 13.551 7 11.8487 7 10c0-4.4183 3.5817-8 8-8s8 3.5817 8 8-3.5817 8-8 8c-1.8487 0-3.551-.627-4.9056-1.6801zM15 16c3.3137 0 6-2.6863 6-6s-2.6863-6-6-6-6 2.6863-6 6 2.6863 6 6 6z"/></svg>
